X:1
T:Title
%%score { 1 | ( 2 3 ) }
L:1/8
M:6/8
K:Bb
V:1 treble nm="Grand Piano"
V:2 bass 
V:3 bass 
V:1
 z3 z2[Q:1/4=90] [DF] | [DB][DB][DB] [Fd][Ec][DB] | [CFA][DFB][EFc] [DFB]2 [B,DF] | %3
 [B,EG][B,EG][B,EG] .[B,DF]2 [Ec] | [Fd]2 [FB] [Fc]2 [EF] | [DB][DB][DB] [Fd][Ec][DB] | %6
[M:5/8] AB[EFc] [DFB]2 |[M:1/8] [B,DF] |[M:3/4] GG GF Bd | c2 A [DB]3 |[M:1/8] [DF] | %11
[M:3/4] [DF][DF] [DF][B,DF] [B,D][B,DF] | [DB]2 [DF] [Fd]2 [Fd] | cc cc Ac | %14
[M:7/8] e2 c [Af]3 [EF] |[M:3/4] [DFB][DFB] [DFB][Fd] [Ec][DB] | [CFA][DFB] [EFc] [DFB]2 [B,DF] | %17
 GG GF Bd | c2 A [DB]3 |] %19
V:2
 z3 z2 [B,,B,] | [B,,B,][B,,B,][B,,B,] [B,,B,][B,,B,][B,,B,] | F,F,F, B,,2 B,, | %3
 E,E,E, z[K:treble] B[K:bass][B,,B,] | [B,,B,]2 [D,B,] [F,A,]2 [F,A,] | %5
 [B,,B,][B,,B,][B,,B,] [B,,B,][B,,B,][B,,B,] |[M:5/8] [F,F]2 z z2 |[M:1/8] B,, | %8
[M:3/4] [E,B,E][E,B,E] [E,B,E] [F,B,D]2 [F,B,F] | [F,A,F]2 [F,CE] [B,,B,]3 |[M:1/8] [B,,B,] | %11
[M:3/4] [B,,B,][B,,B,] .[B,,B,]2 F,A,, | [B,,B,]2 [B,,B,] [B,,B,]2 [B,,B,] | %13
 [F,A,F][F,A,F] [F,A,F][F,F]- [F,CF][F,EF] |[M:7/8] [F,CF]2 [F,A,F] [F,C]3 F, | %15
[M:3/4] B,,B,, B,,[B,,B,] [B,,B,][B,,B,] | F,F, F, A,,2 B,, | %17
 [E,B,E][E,B,E] [E,B,E] [F,B,D]2 [F,B,F] | [F,A,F]2 [F,CE] [B,,B,]3 |] %19
V:3
 x6 | x6 | x6 | z3 .B,,3[K:treble][K:bass] | x6 | x6 |[M:5/8] CDF, B,,2 |[M:1/8] x |[M:3/4] x6 | %9
 x6 |[M:1/8] x |[M:3/4] z2 z .B,,3 | x6 | z2 z A, z2 |[M:7/8] x7 |[M:3/4] x6 | x6 | x6 | x6 |] %19

